brandFactory_export/3.Masa/Servicio tecnico_3Masa.svg

<?xml version="1.0" encoding="UTF-8"?>
<svg width="24px" height="24px" viewBox="0 0 24 24" version="1.1" xmlns="http://www.w3.org/2000/svg" xmlns:xlink="http://www.w3.org/1999/xlink">
    <title>3.Masa/Servicio tecnico_3Masa</title>
    <g id="Symbols" stroke="none" stroke-width="1" fill="none" fill-rule="evenodd">
        <g id="3.Masa/Servicio-tecnico_3Masa" fill="#5CB615" fill-rule="nonzero">
            <path d="M19.1932773,1.00336134 C18.7563025,1.01008403 18.3260504,1.05378151 17.8991597,1.13445378 C16.9243697,1.31596639 16.1714286,1.66554622 15.6638655,2.17310924 C15.1529412,2.68403361 14.8,3.45042017 14.6184874,4.44201681 C14.5445378,4.8487395 14.5042017,5.26218487 14.497479,5.67563025 C14.4907563,5.69915966 14.4806723,5.72268908 14.4705882,5.74285714 L4.74285714,15.4705882 C4.72268908,15.4806723 4.69915966,15.4907563 4.67563025,15.497479 C4.2487395,15.5042017 3.82521008,15.5478992 3.40840336,15.6252101 C2.4302521,15.8067227 1.68067227,16.1563025 1.17310924,16.6638655 C0.662184874,17.1747899 0.309243697,17.9411765 0.127731092,18.9327731 C0.0504201681,19.3495798 0.0100840336,19.7731092 0.00659648065,20.1966387 C0.00336134454,20.4386555 0.0672268908,20.6739496 0.188235294,20.8823529 C0.389915966,21.2184874 0.752941176,21.4235294 1.14285714,21.4235294 C1.36806723,21.4235294 1.70756303,21.3563025 2.0302521,21.0302521 L2.83361345,20.2268908 L3.66386555,20.3445378 L3.78151261,21.1747899 L2.98151261,21.9781513 C2.84705882,22.1092437 2.74285714,22.2638655 2.67226891,22.4352941 C2.43697479,23.0033613 2.70588235,23.6554622 3.27394958,23.897479 C3.44537815,23.9714286 3.6302521,24.0084034 3.81512605,24.0052523 L3.82184874,24.0052523 C4.25546218,23.9983193 4.68907563,23.9546218 5.11260504,23.8773109 C6.0907563,23.6957983 6.84033613,23.3462185 7.34789916,22.8386555 C7.85882353,22.3277311 8.21176471,21.5613445 8.39327731,20.5697479 C8.46722689,20.1630252 8.50756303,19.7495798 8.51428571,19.3361345 C8.5210084,19.312605 8.53109244,19.2890756 8.54117647,19.2689076 L18.2689076,9.54117647 C18.2890756,9.53109244 18.312605,9.5210084 18.3361345,9.51428571 C18.7630252,9.50756303 19.1865546,9.46386555 19.6033613,9.38655462 C20.5781513,9.20504202 21.3310924,8.85546218 21.8386555,8.34789916 C22.3495798,7.83697479 22.702521,7.07058824 22.8840336,6.0789916 C22.9613445,5.66218487 23.0016807,5.23865546 23.0051682,4.81512605 C23.0084034,4.57310924 22.9445378,4.33781513 22.8201681,4.12941176 C22.6184874,3.79327731 22.2554622,3.58823529 21.8655462,3.58823529 C21.6403361,3.58823529 21.3008403,3.65546218 20.9781513,3.98151261 L20.1747899,4.78487395 L19.3445378,4.66722689 L19.2268908,3.83697479 L20.0336134,3.03361345 C20.1680672,2.90252101 20.2722689,2.74789916 20.3428571,2.57647059 C20.5781513,2.00840336 20.3092437,1.35630252 19.7411765,1.11428571 C19.5697479,1.04033613 19.3848739,1.00336134 19.2,1.00672269 L19.1932773,1.00336134 L19.1932773,1.00336134 Z" id="Path"></path>
        </g>
    </g>
</svg>

<svg width="24" height="24" viewBox="0 0 24 24" xmlns="http://www.w3.org/2000/svg"><path d="M19.193 1.003c-.437.007-.867.05-1.294.131-.975.182-1.728.532-2.235 1.04-.511.51-.864 1.276-1.046 2.268-.073.407-.114.82-.12 1.234a.4.4 0 01-.027.067L4.743 15.47a.4.4 0 01-.067.026c-.427.007-.85.05-1.268.128-.978.182-1.727.531-2.235 1.039-.51.51-.864 1.277-1.045 2.269-.078.417-.118.84-.121 1.264-.004.242.06.477.181.685.202.336.565.542.955.542.225 0 .565-.068.887-.394l.804-.803.83.118.118.83-.8.803a1.359 1.359 0 00-.31.457c-.235.568.034 1.22.602 1.462.171.074.356.111.541.108h.007c.433-.007.867-.05 1.29-.128.979-.181 1.728-.53 2.236-1.038.51-.511.864-1.278 1.045-2.27.074-.406.115-.82.121-1.233a.4.4 0 01.027-.067L18.27 9.54a.4.4 0 01.067-.027c.427-.006.85-.05 1.267-.127.975-.182 1.728-.532 2.236-1.04.51-.51.864-1.276 1.045-2.268.077-.417.118-.84.121-1.264a1.299 1.299 0 00-.185-.686 1.114 1.114 0 00-.954-.54c-.226 0-.565.066-.888.393l-.803.803-.83-.118-.118-.83.807-.803c.134-.131.238-.286.309-.458a1.124 1.124 0 00-.602-1.462 1.308 1.308 0 00-.541-.107l-.007-.004z" fill="#5CB615" fill-rule="nonzero"/></svg>
